apps/www/public/images/launchweek/wrappers-visual-hover.svg

<svg xmlns="http://www.w3.org/2000/svg" width="1386" height="400" fill="none" viewBox="0 0 1386 401"><path fill="#131313" d="M5.813-3.445h1438.36v419.416H5.813z"/><mask id="a" width="220" height="197" x="945" y="151" maskUnits="userSpaceOnUse" style="mask-type:alpha"><ellipse fill="#d9d9d9" rx="92.755" ry="113.586" transform="rotate(61.88 319.441 1004.85)scale(-1 1)"/></mask><g stroke="#577f82" stroke-linecap="round" stroke-width=".605" mask="url(#a)"><ellipse rx="81.418" ry="97.263" transform="rotate(61.88 316.473 1028.422)scale(-1 1)"/><ellipse rx="66.571" ry="81.522" transform="rotate(-118.12 630.2 -185.205)scale(1 -1)"/><ellipse rx="48.011" ry="64.176" transform="rotate(61.88 304.176 1069.502)scale(-1 1)"/><ellipse rx="31.667" ry="46.393" transform="rotate(61.88 296.28 1088.806)scale(-1 1)"/></g><ellipse stroke="#577f82" stroke-linecap="round" stroke-width=".605" rx="109.585" ry="134.572" transform="rotate(61.88 326.149 989.798)scale(-1 1)"/><ellipse stroke="#577f82" stroke-linecap="round" stroke-width=".605" rx="92.755" ry="113.586" transform="rotate(61.88 319.444 1004.86)scale(-1 1)"/><ellipse stroke="#577f82" stroke-linecap="round" stroke-width=".605" rx="126.287" ry="154.649" transform="rotate(61.88 336.208 976.885)scale(-1 1)"/><ellipse stroke="#577f82" stroke-linecap="round" stroke-width=".605" rx="145.557" ry="178.206" transform="rotate(61.88 342.12 958.58)scale(-1 1)"/><ellipse stroke="#577f82" stroke-linecap="round" stroke-width="1.21" rx="168.2" ry="204.564" transform="rotate(61.88 351.466 938.509)scale(-1 1)"/><ellipse stroke="#577f82" stroke-linecap="round" stroke-width="1.21" rx="190.476" ry="236.775" transform="rotate(61.88 359.121 923.24)scale(-1 1)"/><ellipse stroke="#577f82" stroke-linecap="round" stroke-width="1.21" rx="208.083" ry="254.91" transform="rotate(61.88 364.886 913.61)scale(-1 1)"/><ellipse stroke="#577f82" stroke-linecap="round" stroke-width="1.21" rx="227.676" ry="276.898" transform="rotate(61.88 372.029 904.189)scale(-1 1)"/><ellipse stroke="#577f82" stroke-linecap="round" stroke-width="1.21" rx="244.714" ry="297.62" transform="rotate(-118.12 542 -223.007)scale(1 -1)"/><ellipse stroke="#577f82" stroke-linecap="round" stroke-width="1.21" rx="266.744" ry="324.413" transform="rotate(61.88 374.431 901.561)scale(-1 1)"/><ellipse stroke="#577f82" stroke-linecap="round" stroke-width="1.21" rx="283.164" ry="344.383" transform="rotate(61.88 374.438 901.566)scale(-1 1)"/><mask id="b" width="674" height="630" x="653" y="-173" maskUnits="userSpaceOnUse" style="mask-type:alpha"><path fill="#adeff3" d="M839.643-108.227c-102.237 54.63-400.535 439.544 76.146 564.481 9.693-76.39 81.972-111.055 114.331-109.164 22.2 1.297 46.21-3.743 68.73-15.773 33.19-17.737 55.56-46.641 62.94-76.685 4.93-20.036 33.66-100.874 164.47-104.951 0-454.551-384.367-312.525-486.617-257.908"/></mask><g stroke="#577f82" stroke-linecap="round" stroke-width=".605" mask="url(#b)"><path d="M735.427 407.526c38.904-30.772 130.23-82.387 235.303-78.808 26.52.903 91.34 13.453 103.56 14.57M1157.15 270.346c2.77-33.744 26.53-84.078 81.68-105.106"/><path d="M1156.17 274.391c-6.98-64.972 26.43-205.523 95.18-240.797"/><path d="M1153.71 282.408c-16.49-49.791-37.61-188.07 9.9-342.85M1144.62 301.84c-14.95-30.511-53.58-119.025-75.55-202.914-21.98-83.889-34.85-176.331-38.53-212.067M1115.74 324.118c-57.89-56.033-195.388-184.654-259.989-233.406S685.618-29.818 640.927-59.611M1101.24 334.09c-22.85-16.591-103.589-66.951-208.411-118.955-104.821-52.004-225.826-77.532-273.225-83.795M1084.78 341.994c-37.58-21.498-149.397-67.536-263.564-67.943-114.166-.407-196.541 19.128-223.457 28.947M912.068 452.673c6.739-39.128 41.989-119.743 154.972-106.408M840.717-122.043c61.449 97.846 237.743 362.556 290.563 435.28"/></g><mask id="c" width="411" height="293" x="881" y="195" maskUnits="userSpaceOnUse" style="mask-type:alpha"><path fill="#adeff3" d="M1218.16 425.925c-242.496 138.062-403.143 8.414-310.592-50.764 42.543-17.625 81.82-34.928 108.032-29.88 25.94 4.999 55.72.741 83.25-13.97 55.33-29.566 80.6-90.161 56.46-135.341 221.71-12.985 118.18 200.388 62.85 229.955"/></mask><g stroke="#577f82" stroke-linecap="round" stroke-width=".605" mask="url(#c)"><path d="M1113.58 447.466c-13.26-19.13-39.55-72.824-33.54-113.288M1239.44 292.451c-9.44-5.518-34.77-17.293-60.55-20.255-25.79-2.962-44.87 9.366-51.18 15.9"/></g><g filter="url(#d)"><path fill="url(#e)" fill-opacity=".6" d="M1186.23 267.931c-33.99 43.446-81.64 78.329-135.1 98.604-73.154 7.921-154.343-49.368-134.496-127.46 17.34-68.243 86.516-125.104 162.236-125.243 75.73-.133 121.25 85.068 107.37 154.099z"/></g><g filter="url(#f)"><circle cx="1015" cy="201.88" r="89.504" fill="url(#g)" transform="rotate(132.348 1015 201.88)"/></g><circle cx="1010.73" cy="208.871" r="76.93" fill="url(#h)" stroke="url(#i)" stroke-width="1.21"/><path fill="url(#j)" d="M.383-1.836h1382.62v406.432H.383z"/><defs><linearGradient id="e" x1="985.448" x2="1190.92" y1="3.592" y2="344.891" gradientUnits="userSpaceOnUse"><stop stop-opacity=".32"/><stop offset="1" stop-color="#00dec3"/></linearGradient><linearGradient id="g" x1="1125.72" x2="931.968" y1="138.837" y2="127.069" gradientUnits="userSpaceOnUse"><stop stop-opacity="0"/><stop stop-opacity=".35"/><stop offset="1" stop-color="#0eace0" stop-opacity="0"/></linearGradient><linearGradient id="h" x1="931.381" x2="1100.24" y1="178.888" y2="230.727" gradientUnits="userSpaceOnUse"><stop/><stop offset="1" stop-color="#191919"/></linearGradient><linearGradient id="i" x1="972.859" x2="1046.19" y1="143.616" y2="283.731" gradientUnits="userSpaceOnUse"><stop/><stop offset=".255" stop-color="#636363" stop-opacity=".34"/><stop offset=".755" stop-color="#636363" stop-opacity=".571"/><stop offset="1" stop-color="#7bb8b8"/></linearGradient><filter id="d" width="601.611" height="579.925" x="750.353" y="-49.413" color-interpolation-filters="sRGB" filterUnits="userSpaceOnUse"><feFlood flood-opacity="0" result="BackgroundImageFix"/><feBlend in="SourceGraphic" in2="BackgroundImageFix" result="shape"/><feGaussianBlur result="effect1_foregroundBlur_1149_110420" stdDeviation="81.622"/></filter><filter id="f" width="205.635" height="205.637" x="912.183" y="99.061" color-interpolation-filters="sRGB" filterUnits="userSpaceOnUse"><feFlood flood-opacity="0" result="BackgroundImageFix"/><feBlend in="SourceGraphic" in2="BackgroundImageFix" result="shape"/><feGaussianBlur result="effect1_foregroundBlur_1149_110420" stdDeviation="6.657"/></filter><radialGradient id="j" cx="0" cy="0" r="1" gradientTransform="matrix(-356.373 0 0 -350.006 1007.86 208.292)" gradientUnits="userSpaceOnUse"><stop stop-opacity="0"/><stop offset=".625" stop-color="#121212" stop-opacity=".35"/><stop offset="1" stop-color="#121212"/></radialGradient></defs></svg>

<svg width="1386" height="400" viewBox="0 0 1386 401" fill="none" xmlns="http://www.w3.org/2000/svg">
<rect x="5.8125" y="-3.44531" width="1438.36" height="419.416" fill="#131313"/>
<mask id="mask0_1149_110420" style="mask-type:alpha" maskUnits="userSpaceOnUse" x="945" y="151" width="220" height="197">
<ellipse rx="92.7547" ry="113.586" transform="matrix(-0.471323 -0.881961 -0.881961 0.471323 1055.12 249.507)" fill="#D9D9D9"/>
</mask>
<g mask="url(#mask0_1149_110420)">
<ellipse rx="81.4178" ry="97.2625" transform="matrix(-0.471323 -0.881961 -0.881961 0.471323 1074.34 264.586)" stroke="#577F82" stroke-width="0.605162" stroke-linecap="round"/>
<ellipse rx="66.5714" ry="81.522" transform="matrix(-0.471323 -0.881961 -0.881961 0.471323 1090.57 283.315)" stroke="#577F82" stroke-width="0.605162" stroke-linecap="round"/>
<ellipse rx="48.0109" ry="64.1756" transform="matrix(-0.471323 -0.881961 -0.881961 0.471323 1104.07 297.15)" stroke="#577F82" stroke-width="0.605162" stroke-linecap="round"/>
<ellipse rx="31.6671" ry="46.3927" transform="matrix(-0.471323 -0.881961 -0.881961 0.471323 1116.92 314.32)" stroke="#577F82" stroke-width="0.605162" stroke-linecap="round"/>
</g>
<ellipse rx="109.585" ry="134.572" transform="matrix(-0.471323 -0.881961 -0.881961 0.471323 1045.39 235.633)" stroke="#577F82" stroke-width="0.605162" stroke-linecap="round"/>
<ellipse rx="92.7547" ry="113.586" transform="matrix(-0.471323 -0.881961 -0.881961 0.471323 1055.13 249.509)" stroke="#577F82" stroke-width="0.605162" stroke-linecap="round"/>
<ellipse rx="126.287" ry="154.649" transform="matrix(-0.471323 -0.881961 -0.881961 0.471323 1039.32 219.935)" stroke="#577F82" stroke-width="0.605162" stroke-linecap="round"/>
<ellipse rx="145.557" ry="178.206" transform="matrix(-0.471323 -0.881961 -0.881961 0.471323 1026.3 205.043)" stroke="#577F82" stroke-width="0.605162" stroke-linecap="round"/>
<ellipse rx="168.2" ry="204.564" transform="matrix(-0.471323 -0.881961 -0.881961 0.471323 1013.54 186.189)" stroke="#577F82" stroke-width="1.21032" stroke-linecap="round" strokeDasharray="0.24 2.42"/>
<ellipse rx="190.476" ry="236.775" transform="matrix(-0.471323 -0.881961 -0.881961 0.471323 1004.12 171.365)" stroke="#577F82" stroke-width="1.21032" stroke-linecap="round" strokeDasharray="0.24 2.42"/>
<ellipse rx="208.083" ry="254.91" transform="matrix(-0.471323 -0.881961 -0.881961 0.471323 998.675 161.19)" stroke="#577F82" stroke-width="1.21032" stroke-linecap="round" strokeDasharray="0.24 2.42"/>
<ellipse rx="227.676" ry="276.898" transform="matrix(-0.471323 -0.881961 -0.881961 0.471323 994.142 149.909)" stroke="#577F82" stroke-width="1.21032" stroke-linecap="round" strokeDasharray="0.24 2.42"/>
<ellipse rx="244.714" ry="297.62" transform="matrix(-0.471323 -0.881961 -0.881961 0.471323 994.141 149.908)" stroke="#577F82" stroke-width="1.21032" stroke-linecap="round" strokeDasharray="0.24 2.42"/>
<ellipse rx="266.744" ry="324.413" transform="matrix(-0.471323 -0.881961 -0.881961 0.471323 993.095 146.401)" stroke="#577F82" stroke-width="1.21032" stroke-linecap="round" strokeDasharray="0.24 2.42"/>
<ellipse rx="283.164" ry="344.383" transform="matrix(-0.471323 -0.881961 -0.881961 0.471323 993.103 146.398)" stroke="#577F82" stroke-width="1.21032" stroke-linecap="round" strokeDasharray="0.24 2.42"/>
<mask id="mask1_1149_110420" style="mask-type:alpha" maskUnits="userSpaceOnUse" x="653" y="-173" width="674" height="630">
<path d="M839.643 -108.227C737.406 -53.5975 439.108 331.317 915.789 456.254C925.482 379.864 997.761 345.199 1030.12 347.09C1052.32 348.387 1076.33 343.347 1098.85 331.317C1132.04 313.58 1154.41 284.676 1161.79 254.632C1166.72 234.596 1195.45 153.758 1326.26 149.681C1326.26 -304.87 941.893 -162.844 839.643 -108.227Z" fill="#ADEFF3"/>
</mask>
<g mask="url(#mask1_1149_110420)">
<path d="M735.427 407.526C774.331 376.754 865.657 325.139 970.73 328.718C997.25 329.621 1062.07 342.171 1074.29 343.288" stroke="#577F82" stroke-width="0.605162" stroke-linecap="round"/>
<path d="M1157.15 270.346C1159.92 236.602 1183.68 186.268 1238.83 165.24" stroke="#577F82" stroke-width="0.605162" stroke-linecap="round"/>
<path d="M1156.17 274.391C1149.19 209.419 1182.6 68.8677 1251.35 33.5938" stroke="#577F82" stroke-width="0.605162" stroke-linecap="round"/>
<path d="M1153.71 282.408C1137.22 232.617 1116.1 94.3378 1163.61 -60.4414" stroke="#577F82" stroke-width="0.605162" stroke-linecap="round"/>
<path d="M1144.62 301.84C1129.67 271.329 1091.04 182.815 1069.07 98.9259C1047.09 15.0373 1034.22 -77.4054 1030.54 -113.141" stroke="#577F82" stroke-width="0.605162" stroke-linecap="round"/>
<path d="M1115.74 324.118C1057.85 268.085 920.352 139.464 855.751 90.7116C791.15 41.9588 685.618 -29.8173 640.927 -59.6113" stroke="#577F82" stroke-width="0.605162" stroke-linecap="round"/>
<path d="M1101.24 334.09C1078.39 317.499 997.651 267.139 892.829 215.135C788.008 163.131 667.003 137.603 619.604 131.34" stroke="#577F82" stroke-width="0.605162" stroke-linecap="round"/>
<path d="M1084.78 341.994C1047.2 320.496 935.383 274.458 821.216 274.051C707.05 273.644 624.675 293.179 597.759 302.998" stroke="#577F82" stroke-width="0.605162" stroke-linecap="round"/>
<path d="M912.068 452.673C918.807 413.545 954.057 332.93 1067.04 346.265" stroke="#577F82" stroke-width="0.605162" stroke-linecap="round"/>
<path d="M840.717 -122.043C902.166 -24.1967 1078.46 240.513 1131.28 313.237" stroke="#577F82" stroke-width="0.605162" stroke-linecap="round"/>
</g>
<mask id="mask2_1149_110420" style="mask-type:alpha" maskUnits="userSpaceOnUse" x="881" y="195" width="411" height="293">
<path d="M1218.16 425.925C975.664 563.987 815.017 434.339 907.568 375.161C950.111 357.536 989.388 340.233 1015.6 345.281C1041.54 350.28 1071.32 346.022 1098.85 331.311C1154.18 301.745 1179.45 241.15 1155.31 195.97C1377.02 182.985 1273.49 396.358 1218.16 425.925Z" fill="#ADEFF3"/>
</mask>
<g mask="url(#mask2_1149_110420)">
<path d="M1113.58 447.466C1100.32 428.336 1074.03 374.642 1080.04 334.178" stroke="#577F82" stroke-width="0.605162" stroke-linecap="round"/>
<path d="M1239.44 292.451C1230 286.933 1204.67 275.158 1178.89 272.196C1153.1 269.234 1134.02 281.562 1127.71 288.096" stroke="#577F82" stroke-width="0.605162" stroke-linecap="round"/>
</g>
<g filter="url(#filter0_f_1149_110420)">
<path d="M1186.23 267.931C1152.24 311.377 1104.59 346.26 1051.13 366.535C977.976 374.456 896.787 317.167 916.634 239.075C933.974 170.832 1003.15 113.971 1078.87 113.832C1154.6 113.699 1200.12 198.9 1186.24 267.931H1186.23Z" fill="url(#paint0_linear_1149_110420)" fill-opacity="0.6"/>
</g>
<g filter="url(#filter1_f_1149_110420)">
<circle cx="1015" cy="201.88" r="89.5041" transform="rotate(132.348 1015 201.88)" fill="url(#paint1_linear_1149_110420)"/>
</g>
<circle cx="1010.73" cy="208.871" r="76.9304" fill="url(#paint2_linear_1149_110420)" stroke="url(#paint3_linear_1149_110420)" stroke-width="1.21032"/>
<rect x="0.382812" y="-1.83594" width="1382.62" height="406.432" fill="url(#paint4_radial_1149_110420)"/>
<defs>
<filter id="filter0_f_1149_110420" x="750.353" y="-49.4127" width="601.611" height="579.925" filterUnits="userSpaceOnUse" color-interpolation-filters="sRGB">
<feFlood flood-opacity="0" result="BackgroundImageFix"/>
<feBlend mode="normal" in="SourceGraphic" in2="BackgroundImageFix" result="shape"/>
<feGaussianBlur stdDeviation="81.6224" result="effect1_foregroundBlur_1149_110420"/>
</filter>
<filter id="filter1_f_1149_110420" x="912.183" y="99.0614" width="205.635" height="205.637" filterUnits="userSpaceOnUse" color-interpolation-filters="sRGB">
<feFlood flood-opacity="0" result="BackgroundImageFix"/>
<feBlend mode="normal" in="SourceGraphic" in2="BackgroundImageFix" result="shape"/>
<feGaussianBlur stdDeviation="6.65678" result="effect1_foregroundBlur_1149_110420"/>
</filter>
<linearGradient id="paint0_linear_1149_110420" x1="985.448" y1="3.59151" x2="1190.92" y2="344.891" gradientUnits="userSpaceOnUse">
<stop stopColor="#39617D" stop-opacity="0.32"/>
<stop offset="1" stop-color="#00DEC3"/>
</linearGradient>
<linearGradient id="paint1_linear_1149_110420" x1="1125.72" y1="138.837" x2="931.968" y2="127.069" gradientUnits="userSpaceOnUse">
<stop stopColor="#5CFFF5" stop-opacity="0"/>
<stop stopColor="white" stop-opacity="0.35"/>
<stop offset="1" stop-color="#0EACE0" stop-opacity="0"/>
</linearGradient>
<linearGradient id="paint2_linear_1149_110420" x1="931.381" y1="178.888" x2="1100.24" y2="230.727" gradientUnits="userSpaceOnUse">
<stop stopColor="#121212"/>
<stop offset="1" stop-color="#191919"/>
</linearGradient>
<linearGradient id="paint3_linear_1149_110420" x1="972.859" y1="143.616" x2="1046.19" y2="283.731" gradientUnits="userSpaceOnUse">
<stop stopColor="#7BB8B8"/>
<stop offset="0.255208" stop-color="#636363" stop-opacity="0.34"/>
<stop offset="0.755208" stop-color="#636363" stop-opacity="0.570732"/>
<stop offset="1" stop-color="#7BB8B8"/>
</linearGradient>
<radialGradient id="paint4_radial_1149_110420" cx="0" cy="0" r="1" gradientUnits="userSpaceOnUse" gradientTransform="translate(1007.86 208.292) rotate(180) scale(356.373 350.006)">
<stop stopColor="#121212" stop-opacity="0"/>
<stop offset="0.625226" stop-color="#121212" stop-opacity="0.35"/>
<stop offset="1" stop-color="#121212"/>
</radialGradient>
</defs>
</svg>
